!!!OTL: WO IST DAS VOLK
!!!ARE: Europa, Mitteleuropa, Deutschland, Preussen
!!!SCT: B0020
!!!YEM: Copyright 1995, estate of Helmut Schaffrath.
**kern
*ICvox
*Ivox
*M4/4
*k[f#]
*G:
{16d
8.g
16a
=1
4.b
8b
8.dd
16cc
8.b
16a
=2
2g
8.r}
{16g#
8.a
16b
=3
4.cc
8a
4.g#
16a
16b
=4
2e
8.r}
{16e
8.b
16a
=5
8.a
16b
8.cc#
16dd
4d
8.f#
16e
=6
2d
4r}
{4d
=7
2.cc
8.b
16a
=8
2.b}
{8.g
16b
=9
2dd
8.dd
16b
8.a
16g
=10
2a
8.r}
{16dd
8.cc
16a
=11
4g
4b
8.b
16b
8.dd
16cc
=12
2a
8.r}
{16a
8.b
16cc
=13
4.dd
8ee
8.dd
16cc
8.b
16a
=14
4g
8.r}
{16b
4.dd
16b
16g
=15
4.dd
16b
16g
4.d
16e
16f#
=16
2g
8.r}
==
!!!AGN: politisch, national, Vaterlands - Lied
!!!ONB: ESAC (Essen Associative Code) Database: BOEHME
!!!AMT: simple quadruple
!!!AIN: vox
!!!EED: Helmut Schaffrath
!!!EEV: 1.0
*-
